images/6605109.svg

<?xml version="1.0" encoding="UTF-8"?>
<svg xmlns="http://www.w3.org/2000/svg" xmlns:xlink="http://www.w3.org/1999/xlink" width="300pt" height="300pt" viewBox="0 0 300 300" version="1.1">
<defs>
<g>
<symbol overflow="visible" id="glyph0-0">
<path style="stroke:none;" d="M 0.453125 1.59375 L 0.453125 -6.34375 L 4.953125 -6.34375 L 4.953125 1.59375 Z M 0.953125 1.09375 L 4.453125 1.09375 L 4.453125 -5.84375 L 0.953125 -5.84375 Z M 0.953125 1.09375 "/>
</symbol>
<symbol overflow="visible" id="glyph0-1">
<path style="stroke:none;" d="M 0.890625 -6.5625 L 2.078125 -6.5625 L 4.984375 -1.078125 L 4.984375 -6.5625 L 5.84375 -6.5625 L 5.84375 0 L 4.65625 0 L 1.75 -5.484375 L 1.75 0 L 0.890625 0 Z M 0.890625 -6.5625 "/>
</symbol>
<symbol overflow="visible" id="glyph0-2">
<path style="stroke:none;" d="M 0.890625 -6.5625 L 1.765625 -6.5625 L 1.765625 -3.875 L 5 -3.875 L 5 -6.5625 L 5.890625 -6.5625 L 5.890625 0 L 5 0 L 5 -3.125 L 1.765625 -3.125 L 1.765625 0 L 0.890625 0 Z M 0.890625 -6.5625 "/>
</symbol>
</g>
</defs>
<g id="surface48769">
<rect x="0" y="0" width="300" height="300" style="fill:rgb(100%,100%,100%);fill-opacity:1;stroke:none;"/>
<path style="fill:none;stroke-width:1.2;stroke-linecap:butt;stroke-linejoin:miter;stroke:rgb(0%,0%,0%);stroke-opacity:1;stroke-miterlimit:10;" d="M 35.25 141.894531 L 53.332031 131.636719 "/>
<path style="fill:none;stroke-width:1.2;stroke-linecap:butt;stroke-linejoin:miter;stroke:rgb(0%,0%,0%);stroke-opacity:1;stroke-miterlimit:10;" d="M 53.332031 131.636719 L 71.257812 142.167969 "/>
<path style="fill:none;stroke-width:1.2;stroke-linecap:butt;stroke-linejoin:miter;stroke:rgb(0%,0%,0%);stroke-opacity:1;stroke-miterlimit:10;" d="M 71.257812 142.167969 L 89.339844 131.910156 "/>
<path style="fill:none;stroke-width:1.2;stroke-linecap:butt;stroke-linejoin:miter;stroke:rgb(0%,0%,0%);stroke-opacity:1;stroke-miterlimit:10;" d="M 89.339844 131.910156 L 98.304688 137.175781 "/>
<path style="fill:none;stroke-width:1.2;stroke-linecap:butt;stroke-linejoin:miter;stroke:rgb(0%,0%,100%);stroke-opacity:1;stroke-miterlimit:10;" d="M 98.304688 137.175781 L 107.269531 142.441406 "/>
<path style="fill:none;stroke-width:1.2;stroke-linecap:butt;stroke-linejoin:miter;stroke:rgb(0%,0%,100%);stroke-opacity:1;stroke-miterlimit:10;" d="M 107.269531 142.441406 L 116.308594 137.308594 "/>
<path style="fill:none;stroke-width:1.2;stroke-linecap:butt;stroke-linejoin:miter;stroke:rgb(0%,0%,0%);stroke-opacity:1;stroke-miterlimit:10;" d="M 116.308594 137.308594 L 125.351562 132.179688 "/>
<path style=" stroke:none;fill-rule:nonzero;fill:rgb(100%,100%,100%);fill-opacity:1;" d="M 100.269531 136.941406 L 114.269531 136.941406 L 114.269531 147.941406 L 100.269531 147.941406 Z M 100.269531 136.941406 "/>
<g style="fill:rgb(0%,0%,100%);fill-opacity:1;">
  <use xlink:href="#glyph0-1" x="100.269531" y="145.604492"/>
  <use xlink:href="#glyph0-2" x="107.24707" y="145.604492"/>
</g>
<path style="fill:none;stroke-width:1.2;stroke-linecap:butt;stroke-linejoin:miter;stroke:rgb(0%,0%,0%);stroke-opacity:1;stroke-miterlimit:10;" d="M 125.351562 132.179688 L 125.429688 121.785156 "/>
<path style="fill:none;stroke-width:1.2;stroke-linecap:butt;stroke-linejoin:miter;stroke:rgb(0%,0%,100%);stroke-opacity:1;stroke-miterlimit:10;" d="M 125.429688 121.785156 L 125.507812 111.390625 "/>
<path style="fill:none;stroke-width:1.2;stroke-linecap:butt;stroke-linejoin:miter;stroke:rgb(0%,0%,0%);stroke-opacity:1;stroke-miterlimit:10;" d="M 130.257812 130.140625 L 130.320312 121.824219 "/>
<path style="fill:none;stroke-width:1.2;stroke-linecap:butt;stroke-linejoin:miter;stroke:rgb(0%,0%,100%);stroke-opacity:1;stroke-miterlimit:10;" d="M 130.320312 121.824219 L 130.382812 113.507812 "/>
<path style="fill:none;stroke-width:1.2;stroke-linecap:butt;stroke-linejoin:miter;stroke:rgb(0%,0%,0%);stroke-opacity:1;stroke-miterlimit:10;" d="M 143.277344 142.710938 L 125.351562 132.179688 "/>
<path style="fill:none;stroke-width:1.2;stroke-linecap:butt;stroke-linejoin:miter;stroke:rgb(0%,0%,100%);stroke-opacity:1;stroke-miterlimit:10;" d="M 125.507812 111.390625 L 134.550781 106.261719 "/>
<path style="fill:none;stroke-width:1.2;stroke-linecap:butt;stroke-linejoin:miter;stroke:rgb(0%,0%,0%);stroke-opacity:1;stroke-miterlimit:10;" d="M 134.550781 106.261719 L 143.589844 101.132812 "/>
<path style=" stroke:none;fill-rule:nonzero;fill:rgb(100%,100%,100%);fill-opacity:1;" d="M 122.507812 105.890625 L 129.507812 105.890625 L 129.507812 116.890625 L 122.507812 116.890625 Z M 122.507812 105.890625 "/>
<g style="fill:rgb(0%,0%,100%);fill-opacity:1;">
  <use xlink:href="#glyph0-1" x="122.507812" y="114.553711"/>
</g>
<path style="fill:none;stroke-width:1.2;stroke-linecap:butt;stroke-linejoin:miter;stroke:rgb(0%,0%,0%);stroke-opacity:1;stroke-miterlimit:10;" d="M 143.589844 101.132812 L 152.554688 106.398438 "/>
<path style="fill:none;stroke-width:1.2;stroke-linecap:butt;stroke-linejoin:miter;stroke:rgb(0%,0%,100%);stroke-opacity:1;stroke-miterlimit:10;" d="M 152.554688 106.398438 L 161.515625 111.664062 "/>
<path style="fill:none;stroke-width:1.2;stroke-linecap:butt;stroke-linejoin:miter;stroke:rgb(0%,0%,0%);stroke-opacity:1;stroke-miterlimit:10;" d="M 142.90625 106.402344 L 150.074219 110.617188 "/>
<path style="fill:none;stroke-width:1.2;stroke-linecap:butt;stroke-linejoin:miter;stroke:rgb(0%,0%,100%);stroke-opacity:1;stroke-miterlimit:10;" d="M 150.074219 110.617188 L 157.246094 114.828125 "/>
<path style="fill:none;stroke-width:1.2;stroke-linecap:butt;stroke-linejoin:miter;stroke:rgb(0%,0%,0%);stroke-opacity:1;stroke-miterlimit:10;" d="M 143.589844 101.132812 L 143.746094 80.34375 "/>
<path style="fill:none;stroke-width:1.2;stroke-linecap:butt;stroke-linejoin:miter;stroke:rgb(0%,0%,100%);stroke-opacity:1;stroke-miterlimit:10;" d="M 161.515625 111.664062 L 161.4375 122.058594 "/>
<path style="fill:none;stroke-width:1.2;stroke-linecap:butt;stroke-linejoin:miter;stroke:rgb(0%,0%,0%);stroke-opacity:1;stroke-miterlimit:10;" d="M 161.4375 122.058594 L 161.359375 132.453125 "/>
<path style=" stroke:none;fill-rule:nonzero;fill:rgb(100%,100%,100%);fill-opacity:1;" d="M 158.515625 106.164062 L 165.515625 106.164062 L 165.515625 117.164062 L 158.515625 117.164062 Z M 158.515625 106.164062 "/>
<g style="fill:rgb(0%,0%,100%);fill-opacity:1;">
  <use xlink:href="#glyph0-1" x="158.515625" y="114.827148"/>
</g>
<path style="fill:none;stroke-width:1.2;stroke-linecap:butt;stroke-linejoin:miter;stroke:rgb(0%,0%,0%);stroke-opacity:1;stroke-miterlimit:10;" d="M 161.359375 132.453125 L 143.277344 142.710938 "/>
<path style="fill:none;stroke-width:1.2;stroke-linecap:butt;stroke-linejoin:miter;stroke:rgb(0%,0%,0%);stroke-opacity:1;stroke-miterlimit:10;" d="M 161.964844 137.734375 L 147.5 145.941406 "/>
<path style="fill:none;stroke-width:1.2;stroke-linecap:butt;stroke-linejoin:miter;stroke:rgb(0%,0%,100%);stroke-opacity:1;stroke-miterlimit:10;" d="M 176.703125 146.480469 L 169.03125 139.464844 "/>
<path style="fill:none;stroke-width:1.2;stroke-linecap:butt;stroke-linejoin:miter;stroke:rgb(0%,0%,0%);stroke-opacity:1;stroke-miterlimit:10;" d="M 169.03125 139.464844 L 161.359375 132.453125 "/>
<path style="fill:none;stroke-width:1.2;stroke-linecap:butt;stroke-linejoin:miter;stroke:rgb(0%,0%,0%);stroke-opacity:1;stroke-miterlimit:10;" d="M 143.277344 142.710938 L 145.359375 152.894531 "/>
<path style="fill:none;stroke-width:1.2;stroke-linecap:butt;stroke-linejoin:miter;stroke:rgb(0%,0%,100%);stroke-opacity:1;stroke-miterlimit:10;" d="M 145.359375 152.894531 L 147.445312 163.078125 "/>
<path style="fill:none;stroke-width:1.2;stroke-linecap:butt;stroke-linejoin:miter;stroke:rgb(0%,0%,100%);stroke-opacity:1;stroke-miterlimit:10;" d="M 147.445312 163.078125 L 157.773438 164.246094 "/>
<path style="fill:none;stroke-width:1.2;stroke-linecap:butt;stroke-linejoin:miter;stroke:rgb(0%,0%,0%);stroke-opacity:1;stroke-miterlimit:10;" d="M 157.773438 164.246094 L 168.105469 165.410156 "/>
<path style="fill:none;stroke-width:1.2;stroke-linecap:butt;stroke-linejoin:miter;stroke:rgb(0%,0%,100%);stroke-opacity:1;stroke-miterlimit:10;" d="M 150.058594 158.453125 L 158.324219 159.382812 "/>
<path style="fill:none;stroke-width:1.2;stroke-linecap:butt;stroke-linejoin:miter;stroke:rgb(0%,0%,0%);stroke-opacity:1;stroke-miterlimit:10;" d="M 158.324219 159.382812 L 166.585938 160.316406 "/>
<path style=" stroke:none;fill-rule:nonzero;fill:rgb(100%,100%,100%);fill-opacity:1;" d="M 144.445312 157.578125 L 151.445312 157.578125 L 151.445312 168.578125 L 144.445312 168.578125 Z M 144.445312 157.578125 "/>
<g style="fill:rgb(0%,0%,100%);fill-opacity:1;">
  <use xlink:href="#glyph0-1" x="144.445312" y="166.241211"/>
</g>
<path style="fill:none;stroke-width:1.2;stroke-linecap:butt;stroke-linejoin:miter;stroke:rgb(0%,0%,0%);stroke-opacity:1;stroke-miterlimit:10;" d="M 168.105469 165.410156 L 172.40625 155.945312 "/>
<path style="fill:none;stroke-width:1.2;stroke-linecap:butt;stroke-linejoin:miter;stroke:rgb(0%,0%,100%);stroke-opacity:1;stroke-miterlimit:10;" d="M 172.40625 155.945312 L 176.703125 146.480469 "/>
<path style="fill:none;stroke-width:1.2;stroke-linecap:butt;stroke-linejoin:miter;stroke:rgb(0%,0%,0%);stroke-opacity:1;stroke-miterlimit:10;" d="M 168.105469 165.410156 L 178.363281 183.492188 "/>
<path style="fill:none;stroke-width:1.2;stroke-linecap:butt;stroke-linejoin:miter;stroke:rgb(0%,0%,100%);stroke-opacity:1;stroke-miterlimit:10;" d="M 176.703125 146.480469 L 186.886719 144.394531 "/>
<path style="fill:none;stroke-width:1.2;stroke-linecap:butt;stroke-linejoin:miter;stroke:rgb(0%,0%,0%);stroke-opacity:1;stroke-miterlimit:10;" d="M 186.886719 144.394531 L 197.070312 142.3125 "/>
<path style=" stroke:none;fill-rule:nonzero;fill:rgb(100%,100%,100%);fill-opacity:1;" d="M 173.703125 140.980469 L 180.703125 140.980469 L 180.703125 151.980469 L 173.703125 151.980469 Z M 173.703125 140.980469 "/>
<g style="fill:rgb(0%,0%,100%);fill-opacity:1;">
  <use xlink:href="#glyph0-1" x="173.703125" y="149.643555"/>
</g>
<path style="fill:none;stroke-width:1.2;stroke-linecap:butt;stroke-linejoin:miter;stroke:rgb(0%,0%,0%);stroke-opacity:1;stroke-miterlimit:10;" d="M 197.070312 142.3125 L 203.644531 122.585938 "/>
<path style="fill:none;stroke-width:1.2;stroke-linecap:butt;stroke-linejoin:miter;stroke:rgb(0%,0%,0%);stroke-opacity:1;stroke-miterlimit:10;" d="M 203.644531 122.585938 L 213.828125 120.503906 "/>
<path style="fill:none;stroke-width:1.2;stroke-linecap:butt;stroke-linejoin:miter;stroke:rgb(0%,0%,100%);stroke-opacity:1;stroke-miterlimit:10;" d="M 213.828125 120.503906 L 224.015625 118.417969 "/>
<path style="fill:none;stroke-width:1.2;stroke-linecap:butt;stroke-linejoin:miter;stroke:rgb(0%,0%,100%);stroke-opacity:1;stroke-miterlimit:10;" d="M 224.015625 118.417969 L 230.910156 126.195312 "/>
<path style="fill:none;stroke-width:1.2;stroke-linecap:butt;stroke-linejoin:miter;stroke:rgb(0%,0%,0%);stroke-opacity:1;stroke-miterlimit:10;" d="M 230.910156 126.195312 L 237.808594 133.972656 "/>
<path style="fill:none;stroke-width:1.2;stroke-linecap:butt;stroke-linejoin:miter;stroke:rgb(0%,0%,0%);stroke-opacity:1;stroke-miterlimit:10;" d="M 230.585938 98.695312 L 227.300781 108.558594 "/>
<path style="fill:none;stroke-width:1.2;stroke-linecap:butt;stroke-linejoin:miter;stroke:rgb(0%,0%,100%);stroke-opacity:1;stroke-miterlimit:10;" d="M 227.300781 108.558594 L 224.015625 118.417969 "/>
<path style=" stroke:none;fill-rule:nonzero;fill:rgb(100%,100%,100%);fill-opacity:1;" d="M 221.015625 112.917969 L 228.015625 112.917969 L 228.015625 123.917969 L 221.015625 123.917969 Z M 221.015625 112.917969 "/>
<g style="fill:rgb(0%,0%,100%);fill-opacity:1;">
  <use xlink:href="#glyph0-1" x="221.015625" y="121.581055"/>
</g>
<path style="fill:none;stroke-width:1.2;stroke-linecap:butt;stroke-linejoin:miter;stroke:rgb(0%,0%,0%);stroke-opacity:1;stroke-miterlimit:10;" d="M 237.808594 133.972656 L 258.175781 129.804688 "/>
<path style="fill:none;stroke-width:1.2;stroke-linecap:butt;stroke-linejoin:miter;stroke:rgb(0%,0%,0%);stroke-opacity:1;stroke-miterlimit:10;" d="M 258.175781 129.804688 L 264.75 110.082031 "/>
<path style="fill:none;stroke-width:1.2;stroke-linecap:butt;stroke-linejoin:miter;stroke:rgb(0%,0%,0%);stroke-opacity:1;stroke-miterlimit:10;" d="M 264.75 110.082031 L 250.957031 94.527344 "/>
<path style="fill:none;stroke-width:1.2;stroke-linecap:butt;stroke-linejoin:miter;stroke:rgb(0%,0%,0%);stroke-opacity:1;stroke-miterlimit:10;" d="M 250.957031 94.527344 L 230.585938 98.695312 "/>
<path style="fill:none;stroke-width:1.2;stroke-linecap:butt;stroke-linejoin:miter;stroke:rgb(0%,0%,0%);stroke-opacity:1;stroke-miterlimit:10;" d="M 178.363281 183.492188 L 167.832031 201.417969 "/>
<path style="fill:none;stroke-width:1.2;stroke-linecap:butt;stroke-linejoin:miter;stroke:rgb(0%,0%,0%);stroke-opacity:1;stroke-miterlimit:10;" d="M 181.527344 187.761719 L 173.105469 202.101562 "/>
<path style="fill:none;stroke-width:1.2;stroke-linecap:butt;stroke-linejoin:miter;stroke:rgb(0%,0%,0%);stroke-opacity:1;stroke-miterlimit:10;" d="M 199.152344 183.648438 L 178.363281 183.492188 "/>
<path style="fill:none;stroke-width:1.2;stroke-linecap:butt;stroke-linejoin:miter;stroke:rgb(0%,0%,0%);stroke-opacity:1;stroke-miterlimit:10;" d="M 167.832031 201.417969 L 178.09375 219.5 "/>
<path style="fill:none;stroke-width:1.2;stroke-linecap:butt;stroke-linejoin:miter;stroke:rgb(0%,0%,0%);stroke-opacity:1;stroke-miterlimit:10;" d="M 178.09375 219.5 L 198.882812 219.65625 "/>
<path style="fill:none;stroke-width:1.2;stroke-linecap:butt;stroke-linejoin:miter;stroke:rgb(0%,0%,0%);stroke-opacity:1;stroke-miterlimit:10;" d="M 180.207031 214.625 L 196.839844 214.75 "/>
<path style="fill:none;stroke-width:1.2;stroke-linecap:butt;stroke-linejoin:miter;stroke:rgb(0%,0%,0%);stroke-opacity:1;stroke-miterlimit:10;" d="M 198.882812 219.65625 L 209.414062 201.730469 "/>
<path style="fill:none;stroke-width:1.2;stroke-linecap:butt;stroke-linejoin:miter;stroke:rgb(0%,0%,0%);stroke-opacity:1;stroke-miterlimit:10;" d="M 209.414062 201.730469 L 199.152344 183.648438 "/>
<path style="fill:none;stroke-width:1.2;stroke-linecap:butt;stroke-linejoin:miter;stroke:rgb(0%,0%,0%);stroke-opacity:1;stroke-miterlimit:10;" d="M 204.132812 202.335938 L 195.925781 187.871094 "/>
</g>
</svg>

<svg xmlns="http://www.w3.org/2000/svg" xmlns:xlink="http://www.w3.org/1999/xlink" width="300pt" height="300pt" viewBox="0 0 300 300"><defs><symbol overflow="visible"><path d="M.453 1.594v-7.938h4.5v7.938zm.5-.5h3.5v-6.938h-3.5zm0 0"/></symbol><symbol overflow="visible" id="a"><path d="M.89-6.563H2.08l2.906 5.485v-5.484h.86V0H4.656L1.75-5.484V0H.89zm0 0"/></symbol><symbol overflow="visible" id="b"><path d="M.89-6.563h.876v2.688H5v-2.688h.89V0H5v-3.125H1.766V0H.89zm0 0"/></symbol></defs><g><path fill="#fff" d="M0 0h300v300H0z"/><path d="M35.25 141.895l18.082-10.258M53.332 131.637l17.926 10.53M71.258 142.168L89.34 131.91M89.34 131.91l8.965 5.266" stroke-width="1.2" stroke="#000" stroke-miterlimit="10" fill="none"/><path d="M98.305 137.176l8.965 5.265M107.27 142.44l9.04-5.13" stroke-width="1.2" stroke="#00f" stroke-miterlimit="10" fill="none"/><path d="M116.31 137.31l9.042-5.13" stroke-width="1.2" stroke="#000" stroke-miterlimit="10" fill="none"/><path d="M100.27 136.94h14v11h-14zm0 0" fill="#fff"/><g fill="#00f"><use xlink:href="#a" x="100.27" y="145.604"/><use xlink:href="#b" x="107.247" y="145.604"/></g><path d="M125.352 132.18l.078-10.395" stroke-width="1.2" stroke="#000" stroke-miterlimit="10" fill="none"/><path d="M125.43 121.785l.078-10.394" stroke-width="1.2" stroke="#00f" stroke-miterlimit="10" fill="none"/><path d="M130.258 130.14l.062-8.316" stroke-width="1.2" stroke="#000" stroke-miterlimit="10" fill="none"/><path d="M130.32 121.824l.063-8.316" stroke-width="1.2" stroke="#00f" stroke-miterlimit="10" fill="none"/><path d="M143.277 142.71l-17.925-10.53" stroke-width="1.2" stroke="#000" stroke-miterlimit="10" fill="none"/><path d="M125.508 111.39l9.043-5.128" stroke-width="1.2" stroke="#00f" stroke-miterlimit="10" fill="none"/><path d="M134.55 106.262l9.04-5.13" stroke-width="1.2" stroke="#000" stroke-miterlimit="10" fill="none"/><path d="M122.508 105.89h7v11h-7zm0 0" fill="#fff"/><use xlink:href="#a" x="122.508" y="114.554" fill="#00f"/><path d="M143.59 101.133l8.965 5.265" stroke-width="1.2" stroke="#000" stroke-miterlimit="10" fill="none"/><path d="M152.555 106.398l8.96 5.266" stroke-width="1.2" stroke="#00f" stroke-miterlimit="10" fill="none"/><path d="M142.906 106.402l7.168 4.215" stroke-width="1.2" stroke="#000" stroke-miterlimit="10" fill="none"/><path d="M150.074 110.617l7.172 4.21" stroke-width="1.2" stroke="#00f" stroke-miterlimit="10" fill="none"/><path d="M143.59 101.133l.156-20.79" stroke-width="1.2" stroke="#000" stroke-miterlimit="10" fill="none"/><path d="M161.516 111.664l-.078 10.395" stroke-width="1.2" stroke="#00f" stroke-miterlimit="10" fill="none"/><path d="M161.438 122.06l-.08 10.393" stroke-width="1.2" stroke="#000" stroke-miterlimit="10" fill="none"/><path d="M158.516 106.164h7v11h-7zm0 0" fill="#fff"/><use xlink:href="#a" x="158.516" y="114.827" fill="#00f"/><path d="M161.36 132.453l-18.083 10.258M161.965 137.734L147.5 145.94" stroke-width="1.2" stroke="#000" stroke-miterlimit="10" fill="none"/><path d="M176.703 146.48l-7.672-7.015" stroke-width="1.2" stroke="#00f" stroke-miterlimit="10" fill="none"/><path d="M169.03 139.465l-7.67-7.012M143.277 142.71l2.082 10.185" stroke-width="1.2" stroke="#000" stroke-miterlimit="10" fill="none"/><path d="M145.36 152.895l2.085 10.183M147.445 163.078l10.328 1.168" stroke-width="1.2" stroke="#00f" stroke-miterlimit="10" fill="none"/><path d="M157.773 164.246l10.332 1.164" stroke-width="1.2" stroke="#000" stroke-miterlimit="10" fill="none"/><path d="M150.06 158.453l8.264.93" stroke-width="1.2" stroke="#00f" stroke-miterlimit="10" fill="none"/><path d="M158.324 159.383l8.262.933" stroke-width="1.2" stroke="#000" stroke-miterlimit="10" fill="none"/><path d="M144.445 157.578h7v11h-7zm0 0" fill="#fff"/><use xlink:href="#a" x="144.445" y="166.241" fill="#00f"/><path d="M168.105 165.41l4.3-9.465" stroke-width="1.2" stroke="#000" stroke-miterlimit="10" fill="none"/><path d="M172.406 155.945l4.297-9.465" stroke-width="1.2" stroke="#00f" stroke-miterlimit="10" fill="none"/><path d="M168.105 165.41l10.258 18.082" stroke-width="1.2" stroke="#000" stroke-miterlimit="10" fill="none"/><path d="M176.703 146.48l10.184-2.085" stroke-width="1.2" stroke="#00f" stroke-miterlimit="10" fill="none"/><path d="M186.887 144.395l10.183-2.083" stroke-width="1.2" stroke="#000" stroke-miterlimit="10" fill="none"/><path d="M173.703 140.98h7v11h-7zm0 0" fill="#fff"/><use xlink:href="#a" x="173.703" y="149.644" fill="#00f"/><path d="M197.07 142.313l6.575-19.727M203.645 122.586l10.183-2.082" stroke-width="1.2" stroke="#000" stroke-miterlimit="10" fill="none"/><path d="M213.828 120.504l10.188-2.086M224.016 118.418l6.894 7.777" stroke-width="1.2" stroke="#00f" stroke-miterlimit="10" fill="none"/><path d="M230.91 126.195l6.9 7.778M230.586 98.695l-3.285 9.864" stroke-width="1.2" stroke="#000" stroke-miterlimit="10" fill="none"/><path d="M227.3 108.56l-3.284 9.858" stroke-width="1.2" stroke="#00f" stroke-miterlimit="10" fill="none"/><path d="M221.016 112.918h7v11h-7zm0 0" fill="#fff"/><use xlink:href="#a" x="221.016" y="121.581" fill="#00f"/><path d="M237.81 133.973l20.366-4.168M258.176 129.805l6.574-19.723M264.75 110.082l-13.793-15.555M250.957 94.527l-20.37 4.168M178.363 183.492l-10.53 17.926M181.527 187.762l-8.422 14.34M199.152 183.648l-20.79-.156M167.832 201.418l10.262 18.082M178.094 219.5l20.79.156M180.207 214.625l16.633.125M198.883 219.656l10.53-17.926M209.414 201.73l-10.262-18.082M204.133 202.336l-8.207-14.465" stroke-width="1.2" stroke="#000" stroke-miterlimit="10" fill="none"/></g></svg>
